X: 33551
T: Rakes Of Cashel, The
R: jig
M: 6/8
K: Gmajor
G2g gdg|gdg fed|B2g gdc|Bc/d/B cAF|
G2g gdg|gdg fed|B2g gdc|Bc/d/B cAF||
B3 cBc|d2g gab|B3 c3|Bc/d/B cAF|
BAG GAG|G2g gdc|BAG GDG|Bc/d/B cAF||
G2g g/a/bg|g/a/bg fdc|B2g g/a/bg|fdd cAF|
G2g g/a/bg|g/a/bg fdc|BDD cDD|ded cAF:|

